packages/icons/svg/Fill/rewind-right.svg

<svg width="24" height="24" viewBox="0 0 24 24" fill="none" xmlns="http://www.w3.org/2000/svg">
<g id="Icon/Fill/rewind-right">
<path id="Mask" fill-rule="evenodd" clip-rule="evenodd" d="M20.8585 10.6738L15.7595 6.45981C15.1505 5.95781 14.2825 5.85681 13.5495 6.20081C12.9025 6.50681 12.5005 7.11381 12.5005 7.78681V10.3778L7.75949 6.45981C7.15049 5.95781 6.28149 5.85681 5.54949 6.20081C4.90249 6.50681 4.50049 7.11381 4.50049 7.78681V16.2128C4.50049 16.8858 4.90249 17.4928 5.54949 17.7988C5.83849 17.9348 6.14949 18.0008 6.45549 18.0008C6.92649 18.0008 7.39049 17.8438 7.75949 17.5388L12.5005 13.6228V16.2128C12.5005 16.8858 12.9025 17.4928 13.5495 17.7988C13.8385 17.9348 14.1495 18.0008 14.4555 18.0008C14.9265 18.0008 15.3905 17.8438 15.7595 17.5388L20.8585 13.3258C21.2665 12.9898 21.5005 12.5058 21.5005 11.9998C21.5005 11.4938 21.2665 11.0098 20.8585 10.6738Z" fill="#000000"/>
</g>
</svg>

<svg fill="none" height="24" viewBox="0 0 24 24" width="24" xmlns="http://www.w3.org/2000/svg"><path clip-rule="evenodd" d="m20.8584 10.6738-5.099-4.21396c-.609-.502-1.477-.603-2.21-.259-.647.306-1.049.913-1.049 1.586v2.59096l-4.74103-3.91796c-.609-.502-1.478-.603-2.21-.259-.647.306-1.049.913-1.049 1.586v8.42596c0 .673.402 1.28 1.049 1.586.289.136.6.202.906.202.471 0 .935-.157 1.304-.462l4.74103-3.916v2.59c0 .673.402 1.28 1.049 1.586.289.136.6.202.906.202.471 0 .935-.157 1.304-.462l5.099-4.213c.408-.336.642-.82.642-1.326s-.234-.99-.642-1.326" fill="#6b7280" fill-rule="evenodd"/></svg>
